assets/symbols/mulberry/flag_algeria.svg

<svg height="850.394" viewBox="0 0 850.394 850.394" width="850.394" xmlns="http://www.w3.org/2000/svg"><path d="m748.18 177.46v342.71h-284.18v-91.71c20.35 1.34 44.29-1.09 72-8.46-26.76 4.2-51.39 1.32-72.28-6.21l.28-.79v-148.21c16.54-5.24 36.43-9 60-10.79-22.15-7.56-42.18-10.1-59.9-8.81l-.1-1.19v-103.66h284.18zm-214.3 171.99 20.83-17.5-24.22-9.42-8.3-26.5-16.381 22.43-25.96 1.13 14.101 23.27-7.74 27.2 25.08-8.05 21.18 15.69z" fill="#fff"/><path d="m464 264.79v148.21l-.28.79c-76.13-27.42-102.41-116.54.28-149z" fill="#34a047"/><path d="m463.72 413.79c20.89 7.53 45.52 10.41 72.28 6.21-27.71 7.37-51.65 9.8-72 8.46-131.68-8.63-113.66-174.98.1-183.27 17.721-1.29 37.75 1.25 59.9 8.81-23.57 1.79-43.46 5.55-60 10.79-102.69 32.46-76.41 121.58-.28 149z" fill="#ed1e29"/><path d="m464.1 245.19c-113.76 8.29-131.78 174.64-.1 183.27v91.71h-295.44l-3.49-379.83h298.93v103.66z" fill="#34a047"/><path d="m162.61 114.42v670.96h-39.49l-1.12-670.61c5.8 2.59 12.62 4.08 19.92 4.08 7.62 0 14.73-1.63 20.69-4.43z" fill="#c8c8c8"/><path d="m554.71 331.95-20.83 17.5-1.41 28.25-21.18-15.69-25.08 8.05 7.74-27.2-14.1-23.27 25.96-1.13 16.38-22.43 8.3 26.5z" fill="#ed1e29"/><path d="m162.61 114.42c-5.96 2.8-13.07 4.43-20.69 4.43-7.3 0-14.12-1.49-19.92-4.08-10.99-4.89-18.33-13.72-18.33-23.8 0-15.4 17.13-27.88 38.25-27.88 21.13 0 38.26 12.48 38.26 27.88 0 9.84-7 18.49-17.57 23.45z" fill="#c8c8c8"/><g fill="none"><g stroke="#231f20"><path d="m165.07 140.34h583.11v379.83h-579.62m-46.56-405.4c-10.99-4.89-18.33-13.72-18.33-23.8 0-15.4 17.13-27.88 38.25-27.88 21.13 0 38.26 12.48 38.26 27.88 0 9.84-7 18.49-17.57 23.45-5.96 2.8-13.07 4.43-20.69 4.43-7.3 0-14.12-1.49-19.92-4.08z" stroke-width="21"/><path d="m122 114v.77l1.12 670.61m39.49-672.78v672.78" stroke-width="21"/><g stroke-width="14"><path d="m744.76 179.39 3.42-1.93 2.01-1.14m-286.19 250.68v93m0-256v149m0-271v102m60 10c-22.15-7.56-42.18-10.1-59.9-8.81-113.76 8.29-131.78 174.64-.1 183.27 20.35 1.34 44.29-1.09 72-8.46"/><path d="m524 254c-23.57 1.79-43.46 5.55-60 10.79-102.69 32.46-76.41 121.58-.28 149 20.89 7.53 45.52 10.41 72.28 6.21"/><path d="m511.29 362.01-25.08 8.05 7.74-27.2-14.1-23.27 25.96-1.13 16.38-22.43 8.3 26.5 24.22 9.42-20.83 17.5-1.41 28.25z"/></g></g><path d="m0 0h850.394v850.394h-850.394z"/><path d="m0 0h850.394v850.394h-850.394z"/></g></svg>

<svg xmlns="http://www.w3.org/2000/svg" width="850.394" height="850.394" viewBox="0 0 850.394 850.394" overflow="visible"><path d="M748.18 177.46v342.71H464V428.46c20.35 1.34 44.29-1.09 72-8.46-26.76 4.2-51.39 1.32-72.28-6.21l.28-.79V264.79c16.54-5.24 36.43-9 60-10.79-22.15-7.56-42.18-10.1-59.9-8.81L464 244V140.34h284.18v37.12zm-214.3 171.99l20.83-17.5-24.22-9.42-8.3-26.5-16.381 22.43-25.96 1.13 14.101 23.27-7.74 27.2 25.08-8.05 21.18 15.69 1.41-28.25z" fill="#fff"/><path d="M464 264.79V413l-.28.79c-76.13-27.42-102.41-116.54.28-149z" fill="#34a047"/><path d="M463.72 413.79c20.89 7.53 45.52 10.41 72.28 6.21-27.71 7.37-51.65 9.8-72 8.46-131.68-8.63-113.66-174.98.1-183.27 17.721-1.29 37.75 1.25 59.9 8.81-23.57 1.79-43.46 5.55-60 10.79-102.69 32.46-76.41 121.58-.28 149z" fill="#ed1e29"/><path d="M464.1 245.19c-113.76 8.29-131.78 174.64-.1 183.27V520.17H168.56l-3.49-379.83H464V244l.1 1.19z" fill="#34a047"/><path d="M162.61 114.42v670.96h-39.49L122 114.77c5.8 2.59 12.62 4.08 19.92 4.08 7.62 0 14.73-1.63 20.69-4.43z" fill="#c8c8c8"/><path fill="#ed1e29" d="M554.71 331.95l-20.83 17.5-1.41 28.25-21.18-15.69-25.08 8.05 7.74-27.2-14.1-23.27 25.96-1.13 16.38-22.43 8.3 26.5z"/><path d="M162.61 114.42c-5.96 2.8-13.07 4.43-20.69 4.43-7.3 0-14.12-1.49-19.92-4.08-10.99-4.89-18.33-13.72-18.33-23.8 0-15.4 17.13-27.88 38.25-27.88 21.13 0 38.26 12.48 38.26 27.88 0 9.84-7 18.49-17.57 23.45z" fill="#c8c8c8"/><g fill="none" stroke="#231f20"><path stroke-width="21" d="M165.07 140.34h583.11v379.83H168.56M122 114.77c-10.99-4.89-18.33-13.72-18.33-23.8 0-15.4 17.13-27.88 38.25-27.88 21.13 0 38.26 12.48 38.26 27.88 0 9.84-7 18.49-17.57 23.45-5.96 2.8-13.07 4.43-20.69 4.43-7.3 0-14.12-1.49-19.92-4.08z"/><path stroke-width="21" d="M122 114v.77l1.12 670.61M162.61 112.6V785.38"/><path stroke-width="14" d="M744.76 179.39l3.42-1.93 2.01-1.14M464 427v93M464 264v149M464 142v102M524 254c-22.15-7.56-42.18-10.1-59.9-8.81-113.76 8.29-131.78 174.64-.1 183.27 20.35 1.34 44.29-1.09 72-8.46"/><path d="M524 254c-23.57 1.79-43.46 5.55-60 10.79-102.69 32.46-76.41 121.58-.28 149 20.89 7.53 45.52 10.41 72.28 6.21" stroke-width="14"/><path stroke-width="14" d="M511.29 362.01l-25.08 8.05 7.74-27.2-14.1-23.27 25.96-1.13 16.38-22.43 8.3 26.5 24.22 9.42-20.83 17.5-1.41 28.25z"/></g><path fill="none" d="M0 0h850.394v850.394H0z"/><path fill="none" d="M0 0h850.394v850.394H0z"/></svg>
